svgs/regular/grid-2-plus.svg

<svg xmlns="http://www.w3.org/2000/svg" viewBox="0 0 512 512"><!--! Font Awesome Pro 6.6.0 by @fontawesome - https://fontawesome.com License - https://fontawesome.com/license (Commercial License) Copyright 2024 Fonticons, Inc. --><path d="M176 80L80 80l0 96 96 0 0-96zM80 32l96 0c26.5 0 48 21.5 48 48l0 96c0 26.5-21.5 48-48 48l-96 0c-26.5 0-48-21.5-48-48l0-96c0-26.5 21.5-48 48-48zm96 304l-96 0 0 96 96 0 0-96zM80 288l96 0c26.5 0 48 21.5 48 48l0 96c0 26.5-21.5 48-48 48l-96 0c-26.5 0-48-21.5-48-48l0-96c0-26.5 21.5-48 48-48zM336 80l0 96 96 0 0-96-96 0zm-48 0c0-26.5 21.5-48 48-48l96 0c26.5 0 48 21.5 48 48l0 96c0 26.5-21.5 48-48 48l-96 0c-26.5 0-48-21.5-48-48l0-96zm96 192c13.3 0 24 10.7 24 24l0 64 64 0c13.3 0 24 10.7 24 24s-10.7 24-24 24l-64 0 0 64c0 13.3-10.7 24-24 24s-24-10.7-24-24l0-64-64 0c-13.3 0-24-10.7-24-24s10.7-24 24-24l64 0 0-64c0-13.3 10.7-24 24-24z"/></svg>

<svg xmlns="http://www.w3.org/2000/svg" viewBox="0 0 512 512"><!--! Font Awesome Pro 6.5.2 by @fontawesome - https://fontawesome.com License - https://fontawesome.com/license (Commercial License) Copyright 2024 Fonticons, Inc. --><path d="M176 80H80v96h96V80zM80 32h96c26.5 0 48 21.5 48 48v96c0 26.5-21.5 48-48 48H80c-26.5 0-48-21.5-48-48V80c0-26.5 21.5-48 48-48zm96 304H80v96h96V336zM80 288h96c26.5 0 48 21.5 48 48v96c0 26.5-21.5 48-48 48H80c-26.5 0-48-21.5-48-48V336c0-26.5 21.5-48 48-48zM336 80v96h96V80H336zm-48 0c0-26.5 21.5-48 48-48h96c26.5 0 48 21.5 48 48v96c0 26.5-21.5 48-48 48H336c-26.5 0-48-21.5-48-48V80zm96 192c13.3 0 24 10.7 24 24v64h64c13.3 0 24 10.7 24 24s-10.7 24-24 24H408v64c0 13.3-10.7 24-24 24s-24-10.7-24-24V408H296c-13.3 0-24-10.7-24-24s10.7-24 24-24h64V296c0-13.3 10.7-24 24-24z"/></svg>
